archdroid-icon-theme/Archdroid-Red/apps/scalable/gnome-fs-bookmark-missing.svg

<svg xmlns="http://www.w3.org/2000/svg" height="48" viewBox="0 0 28 36" fill="#F44336"><path d="m24 0h-20c-2.21 0-3.98 1.79-3.98 4l-.02 32 14-6 14 6v-32c0-2.21-1.79-4-4-4m0 30l-10-4.35-10 4.35v-26h20v26"/></svg>

<?xml version="1.0" encoding="UTF-8" standalone="no"?>
<svg
   xmlns:dc="http://purl.org/dc/elements/1.1/"
   xmlns:cc="http://creativecommons.org/ns#"
   xmlns:rdf="http://www.w3.org/1999/02/22-rdf-syntax-ns#"
   xmlns:svg="http://www.w3.org/2000/svg"
   xmlns="http://www.w3.org/2000/svg"
   xmlns:sodipodi="http://sodipodi.sourceforge.net/DTD/sodipodi-0.dtd"
   xmlns:inkscape="http://www.inkscape.org/namespaces/inkscape"
   width="28"
   height="48"
   viewBox="0 0 28 36"
   id="svg2"
   version="1.1"
   inkscape:version="0.91 r13725"
   sodipodi:docname="gnome-fs-bookmark-missing.svg"
   style="fill:#F44336">
  <metadata
     id="metadata10">
    <rdf:RDF>
      <cc:Work
         rdf:about="">
        <dc:format>image/svg+xml</dc:format>
        <dc:type
           rdf:resource="http://purl.org/dc/dcmitype/StillImage" />
        <dc:title></dc:title>
      </cc:Work>
    </rdf:RDF>
  </metadata>
  <defs
     id="defs8" />
  <sodipodi:namedview
     pagecolor="#ffffff"
     bordercolor="#666666"
     borderopacity="1"
     objecttolerance="10"
     gridtolerance="10"
     guidetolerance="10"
     inkscape:pageopacity="0"
     inkscape:pageshadow="2"
     inkscape:window-width="668"
     inkscape:window-height="480"
     id="namedview6"
     showgrid="false"
     fit-margin-top="0"
     fit-margin-left="0"
     fit-margin-right="0"
     fit-margin-bottom="0"
     inkscape:zoom="4.916666666666668"
     inkscape:cx="13.99999999999999"
     inkscape:cy="17.99999999999999"
     inkscape:window-x="0"
     inkscape:window-y="30"
     inkscape:window-maximized="0"
     inkscape:current-layer="svg2" />
  <path
     d="M 24,0 4,0 C 1.789999999999999,0 0.0199999999999996,1.79 0.0199999999999996,4 L 0,36 14,30 28,36 28,4 C 28,1.79 26.21,0 24,0 Z M 24,30 14,25.65 4,30 4,4 24,4 24,30 Z"
     id="path4"
     inkscape:connector-curvature="0" />
</svg>
